X: 20923
T: Jota Peona
R: waltz
M: 3/4
K: Dmajor
fg ag|:f2 fe d2-|d2 ed cB|d2 cB c2-|c2 ed ef|
g2 gf e2-|e2 ed cB|d2 cB A2-|A2 ff ff|
f2 e2 d2|d2 e2 f2|g2 gf e2-|e2 ed cB|
A2 A2 A2|f2- f2 e2|d2 d2 d2|1 d2 fg ag:|2 d2 z4||
A2 A2 A2|e2 e2- ef|e2 d4-|d6|
A2 A2 A2|f2 f2- fg|f2 e4-|e6|
A2 A2 A2|e2 e2- ef|e2 d4-|d6|
f2 e2 d2|c2 A2 c2|Bc BA G2-|G6|
e2 d2 c2|B2 G2 B2|AB AG F2-|F6|
A2 A2 A2|f2 f2 g2|f2 ef g2-|g2 ed cB|
A2 A2 A2|f4 e2|d6-|d2||

